X:1
T:041 - Reconhecimento
T:Letra: Henry Maxwell Wright (1849-1931)
T:Música: Isaac Hickman Meredith (1872-1962)
M:4/4
L:1/8
Q:1/4=100
K:Gmaj
V:1
d | "G"d>e dc B>c (BA) | G2 B2 B4 | "D"F2 A2 "D7"A4 | "G"G2 B2 H"D7"d3 d | "G"d>e dc B>c (BA) | G2 B2 HB2 e2 | "C"d3c "D7"c2 A2 | "G"G6 z |]
w: 1.~A-té a cruz o meu Je-sus_ foi por mim, Foi por mim, foi por mim; A-té a cruz o meu Je-sus_ foi por mim, Mi-nhaal-ma pra sal-var!             
W: 
W:
W:
W: 1. Até a cruz o meu Jesus foi por mim,
W: Foi por mim, foi por mim;
W: Até a cruz o meu Jesus foi por mim,
W: Minha alma pra salvar!
W:         
W: 





